X: 18052
T: Humours Of Ayle House, The
R: jig
M: 6/8
K: Dmajor
|:d/B/|ADD F2d|cAA BAG|FAA A2d|cAF GAG|
FED def|ged cd/e/g|fed cAF|GFD D2:|
|:d/B/|ABA fed|eAB cAG|ABA fed|eEF GAB|
ABA fed|eAB cd/e/g|fed cAF|GFD D2:|

